packages/tokens/icons/saml/size64Px.svg

<svg viewBox="0 0 64 64" fill="none" xmlns="http://www.w3.org/2000/svg" width="1em" height="1em"><path d="M57 46.5H57.5C57.5 46.3635 57.4442 46.2329 57.3455 46.1385L57 46.5ZM57 46.5L57.5 46.5001V46.5003V46.5007V46.5013V46.502V46.5028V46.5039V46.505V46.5064V46.5078V46.5095V46.5112V46.5132V46.5153V46.5175V46.5199V46.5224V46.5251V46.5279V46.5309V46.5341V46.5373V46.5407V46.5443V46.548V46.5519V46.5559V46.56V46.5643V46.5687V46.5733V46.578V46.5828V46.5878V46.5929V46.5982V46.6035V46.6091V46.6147V46.6205V46.6265V46.6325V46.6388V46.6451V46.6516V46.6582V46.6649V46.6718V46.6787V46.6859V46.6931V46.7005V46.708V46.7156V46.7234V46.7313V46.7393V46.7474V46.7557V46.7641V46.7726V46.7812V46.79V46.7989V46.8078V46.817V46.8262V46.8355V46.845V46.8546V46.8643V46.8741V46.8841V46.8941V46.9043V46.9146V46.925V46.9355V46.9461V46.9568V46.9677V46.9786V46.9897V47.0008V47.0121V47.0235V47.035V47.0466V47.0583V47.0701V47.0821V47.0941V47.1062V47.1184V47.1308V47.1432V47.1558V47.1684V47.1811V47.194V47.2069V47.22V47.2331V47.2463V47.2597V47.2731V47.2866V47.3002V47.3139V47.3277V47.3416V47.3556V47.3697V47.3839V47.3981V47.4125V47.4269V47.4415V47.4561V47.4708V47.4856V47.5005V47.5155V47.5305V47.5457V47.5609V47.5762V47.5916V47.6071V47.6226V47.6383V47.654V47.6698V47.6857V47.7016V47.7177V47.7338V47.75V47.7662V47.7826V47.799V47.8155V47.8321V47.8487V47.8654V47.8822V47.8991V47.916V47.933V47.9501V47.9672V47.9844V48.0017V48.0191V48.0365V48.0539V48.0715V48.0891V48.1068V48.1245V48.1423V48.1602V48.1781V48.1961V48.2142V48.2323V48.2505V48.2687V48.287V48.3053V48.3237V48.3422V48.3607V48.3793V48.3979V48.4166V48.4353V48.4541V48.473V48.4919V48.5108V48.5298V48.5489V48.568V48.5871V48.6063V48.6256V48.6449V48.6642V48.6836V48.703V48.7225V48.7421V48.7616V48.7812V48.8009V48.8206V48.8403V48.8601V48.8799V48.8998V48.9197V48.9396V48.9596V48.9796V48.9996V49.0197V49.0399V49.06V49.0802V49.1004V49.1207V49.141V49.1613V49.1816V49.202V49.2224V49.2429V49.2634V49.2839V49.3044V49.325V49.3455V49.3661V49.3868V49.4074V49.4281V49.4488V49.4696V49.4903V49.5111V49.5319V49.5527V49.5736V49.5944V49.6153V49.6362V49.6571V49.678V49.699V49.72V49.7409V49.7619V49.7829V49.804V49.825V49.846V49.8671V49.8882V49.9092V49.9303V49.9514V49.9725V49.9937V50.0148V50.0359V50.0571V50.0782V50.0994V50.1205V50.1417V50.1628V50.184V50.2052V50.2263V50.2475V50.2687V50.2899V50.311V50.3322V50.3534V50.3745V50.3957V50.4169V50.438V50.4592V50.4803V50.5015V50.5226V50.5437V50.5648V50.5859V50.607V50.6281V50.6492V50.6703V50.6913V50.7124V50.7334V50.7545V50.7755V50.7965V50.8174V50.8384V50.8593V50.8803V50.9012V50.9221V50.943V50.9638V50.9847V51.0055V51.0263V51.0471V51.0678V51.0885V51.1092V51.1299V51.1506V51.1712V51.1918V51.2124V51.233V51.2535V51.274V51.2945V51.3149V51.3354V51.3557V51.3761V51.3964V51.4167V51.437V51.4572V51.4774V51.4975V51.5177V51.5377V51.5578V51.5778V51.5978V51.6177V51.6376V51.6575V51.6773V51.6971V51.7168V51.7365V51.7561V51.7758V51.7953V51.8149V51.8343V51.8538V51.8732V51.8925V51.9118V51.931V51.9502V51.9694V51.9885V52.0075V52.0265V52.0455V52.0644V52.0832V52.102V52.1208V52.1395V52.1581V52.1767V52.1952V52.2136V52.2321V52.2504V52.2687V52.2869V52.3051V52.3232V52.3413V52.3593V52.3772V52.3951V52.4129V52.4306V52.4483V52.4659V52.4834V52.5009V52.5183V52.5357V52.5529V52.5702V52.5873V52.6044V52.6214V52.6383V52.6552V52.6719V52.6887V52.7053V52.7219V52.7384V52.7548V52.7711V52.7874V52.8036V52.8197V52.8357V52.8517V52.8676V52.8834V52.8991V52.9147V52.9303V52.9458V52.9612V52.9765V52.9917V53.0068V53.0219V53.0369V53.0518V53.0665V53.0813V53.0959V53.1104V53.1249V53.1392V53.1535V53.1677V53.1817V53.1957V53.2096V53.2234V53.2371V53.2508V53.2643V53.2777V53.291V53.3043V53.3174V53.3304V53.3434V53.3562V53.369V53.3816V53.3941V53.4066V53.4189V53.4311V53.4433V53.4553V53.4672V53.479V53.4907V53.5023V53.5138V53.5252V53.5365V53.5477V53.5587V53.5697V53.5805V53.5913V53.6019V53.6124V53.6228V53.6331V53.6432V53.6533V53.6632V53.673V53.6827V53.6923V53.7018V53.7112V53.7204V53.7295V53.7385V53.7474V53.7561V53.7647V53.7733V53.7816V53.7899V53.798V53.806V53.8139V53.8217V53.8293V53.8368V53.8442V53.8515V53.8586V53.8656V53.8724V53.8792V53.8858V53.8923V53.8986V53.9048V53.9109V53.9168V53.9226V53.9283V53.9338V53.9392V53.9444V53.9496V53.9545V53.9594V53.9641V53.9686V53.9731V53.9773V53.9815V53.9855V53.9893V53.993V53.9966V54C57.5 54.6626 57.1737 55.2834 56.7286 55.7286C56.2834 56.1737 55.6626 56.5 55 56.5H54.9974H54.9946H54.9917H54.9886H54.9854H54.982H54.9785H54.9748H54.971H54.967H54.9629H54.9587H54.9543H54.9498H54.9451H54.9402H54.9353H54.9302H54.9249H54.9195H54.914H54.9083H54.9025H54.8966H54.8905H54.8843H54.8779H54.8714H54.8648H54.8581H54.8512H54.8441H54.837H54.8297H54.8223H54.8147H54.8071H54.7993H54.7913H54.7833H54.7751H54.7667H54.7583H54.7497H54.741H54.7322H54.7233H54.7142H54.705H54.6957H54.6863H54.6767H54.6671H54.6573H54.6474H54.6373H54.6272H54.6169H54.6066H54.5961H54.5855H54.5747H54.5639H54.5529H54.5419H54.5307H54.5194H54.508H54.4965H54.4849H54.4732H54.4613H54.4494H54.4374H54.4252H54.4129H54.4006H54.3881H54.3755H54.3629H54.3501H54.3372H54.3242H54.3111H54.2979H54.2847H54.2713H54.2578H54.2442H54.2305H54.2168H54.2029H54.1889H54.1749H54.1607H54.1465H54.1321H54.1177H54.1032H54.0885H54.0738H54.059H54.0442H54.0292H54.0141H53.999H53.9837H53.9684H53.953H53.9375H53.9219H53.9063H53.8905H53.8747H53.8588H53.8428H53.8267H53.8106H53.7943H53.778H53.7616H53.7452H53.7286H53.712H53.6953H53.6785H53.6617H53.6448H53.6278H53.6107H53.5936H53.5764H53.5591H53.5417H53.5243H53.5068H53.4893H53.4716H53.4539H53.4362H53.4183H53.4005H53.3825H53.3645H53.3464H53.3282H53.31H53.2918H53.2734H53.255H53.2366H53.2181H53.1995H53.1809H53.1622H53.1434H53.1246H53.1058H53.0869H53.0679H53.0489H53.0298H53.0107H52.9915H52.9723H52.953H52.9337H52.9143H52.8949H52.8754H52.8559H52.8363H52.8167H52.797H52.7773H52.7576H52.7378H52.7179H52.698H52.6781H52.6581H52.6381H52.6181H52.598H52.5779H52.5577H52.5375H52.5173H52.497H52.4767H52.4563H52.436H52.4155H52.3951H52.3746H52.3541H52.3335H52.313H52.2923H52.2717H52.251H52.2303H52.2096H52.1889H52.1681H52.1473H52.1264H52.1056H52.0847H52.0638H52.0429H52.0219H52.0009H51.9799H51.9589H51.9379H51.9168H51.8958H51.8747H51.8536H51.8324H51.8113H51.7901H51.769H51.7478H51.7266H51.7054H51.6841H51.6629H51.6416H51.6204H51.5991H51.5778H51.5565H51.5352H51.5139H51.4926H51.4713H51.4499H51.4286H51.4073H51.3859H51.3646H51.3432H51.3219H51.3005H51.2792H51.2578H51.2365H51.2151H51.1937H51.1724H51.151H51.1297H51.1083H51.087H51.0657H51.0443H51.023H51.0017H50.9804H50.9591H50.9378H50.9165H50.8953H50.874H50.8528H50.8315H50.8103H50.7891H50.7679H50.7467H50.7255H50.7044H50.6832H50.6621H50.641H50.6199H50.5988H50.5778H50.5568H50.5358H50.5148H50.4938H50.4728H50.4519H50.431H50.4102H50.3893H50.3685H50.3477H50.3269H50.3062H50.2854H50.2647H50.2441H50.2234H50.2028H50.1823H50.1617H50.1412H50.1208H50.1003H50.0799H50.0595H50.0392H50.0189H49.9986H49.9784H49.9582H49.938H49.9179H49.8978H49.8778H49.8578H49.8378H49.8179H49.7981H49.7782H49.7584H49.7387H49.719H49.6994H49.6798H49.6602H49.6407H49.6212H49.6018H49.5824H49.5631H49.5439H49.5246H49.5055H49.4864H49.4673H49.4483H49.4293H49.4104H49.3916H49.3728H49.3541H49.3354H49.3168H49.2982H49.2797H49.2613H49.2429H49.2246H49.2064H49.1882H49.17H49.152H49.134H49.116H49.0981H49.0803H49.0626H49.0449H49.0273H49.0098H48.9923H48.9749H48.9575H48.9403H48.9231H48.906H48.8889H48.8719H48.855H48.8382H48.8215H48.8048H48.7882H48.7717H48.7552H48.7388H48.7225H48.7063H48.6902H48.6741H48.6582H48.6423H48.6265H48.6108H48.5951H48.5796H48.5641H48.5487H48.5334H48.5182H48.503H48.488H48.4731H48.4582H48.4434H48.4287H48.4141H48.3996H48.3852H48.3709H48.3567H48.3425H48.3285H48.3146H48.3007H48.287H48.2733H48.2598H48.2463H48.2329H48.2197H48.2065H48.1935H48.1805H48.1676H48.1549H48.1422H48.1297H48.1172H48.1049H48.0927H48.0805H48.0685H48.0566H48.0448H48.0331H48.0215H48.01H47.9987H47.9874H47.9763H47.9652H47.9543H47.9435H47.9328H47.9222H47.9118H47.9014H47.8912H47.8811H47.8711H47.8612H47.8514H47.8418H47.8323H47.8229H47.8136H47.8044H47.7954H47.7865H47.7777H47.769H47.7605H47.7521H47.7438H47.7356H47.7276H47.7197H47.7119H47.7043H47.6968H47.6894H47.6821H47.675H47.668H47.6612H47.6544H47.6478H47.6414H47.6351H47.6289H47.6228H47.6169H47.6112H47.6055H47.6H47.5947H47.5895H47.5844H47.5795H47.5747H47.57H47.5655H47.5612H47.5569H47.5529H47.5489H47.5452H47.5415H47.538H47.5347H47.5315H47.5285H47.5256H47.5229H47.5203H47.5178H47.5156H47.5134H47.5115H47.5096H47.508H47.5065H47.5051H47.5039H47.5029H47.502H47.5013H47.5007H47.5003H47.5001L47.5 56M57 46.5C57.3455 46.1385 57.3454 46.1385 57.3453 46.1384L57.3449 46.138L57.3431 46.1362L57.3359 46.1294L57.3075 46.1022L57.1959 45.9955L56.7663 45.5845C56.3931 45.2274 55.8528 44.71 55.1843 44.0692C53.8473 42.7875 51.9977 41.0121 49.9473 39.037C45.8457 35.0859 40.9432 30.3384 37.7323 27.1455C36.4327 25.8531 36.4925 24.2522 36.5541 22.9661C36.5593 22.8591 36.5612 22.7553 36.5629 22.6636C36.5631 22.6494 36.5634 22.6355 36.5636 22.6219C36.5657 22.5165 36.568 22.4305 36.5742 22.3537C36.998 17.0908 35.6549 12.3773 32.8461 8.9711C30.0318 5.55824 25.7797 3.5 20.4812 3.5C10.5694 3.5 4.5 11.7343 4.5 19.0123C4.5 22.5867 5.2595 27.0821 7.92904 30.6406C10.6197 34.2273 15.1921 36.7841 22.6395 36.564C22.9866 36.5637 23.3478 36.5471 23.705 36.5306L23.7114 36.5303C24.0482 36.5148 24.3981 36.4785 24.7369 36.4434C24.7957 36.4373 24.8542 36.4312 24.9123 36.4253C25.3124 36.3846 25.6995 36.3497 26.078 36.3476C26.8317 36.3433 27.5024 36.4694 28.0808 36.9008C28.0808 36.9008 28.0824 36.902 28.0857 36.9047C28.089 36.9075 28.0935 36.9113 28.0993 36.9164C28.1024 36.9192 28.1057 36.9222 28.1094 36.9255C28.1192 36.9345 28.1308 36.9454 28.1443 36.9586C28.1815 36.995 28.2277 37.0429 28.2836 37.1033C28.3953 37.224 28.535 37.3831 28.7005 37.5757C28.8835 37.7887 29.0904 38.0339 29.3192 38.3048C29.5074 38.5278 29.7104 38.7681 29.9268 39.0224C30.8747 40.136 32.0487 41.4778 33.1578 42.519C33.4292 42.7739 33.7899 42.8486 34.1547 42.8292C34.517 42.8099 34.9402 42.6966 35.4219 42.5067C35.9114 42.3138 36.3678 42.1347 36.739 42.0366C36.9249 41.9874 37.0602 41.9669 37.1497 41.9666C37.1557 41.9665 37.1612 41.9666 37.1662 41.9667C37.1745 41.9979 37.1821 42.0527 37.1766 42.144C37.1646 42.3448 37.0913 42.6469 36.917 43.0728L36.9092 43.0918C36.7274 43.5362 36.5299 44.0187 36.4155 44.4263C36.3577 44.632 36.3117 44.8501 36.3089 45.0528C36.3063 45.2433 36.3409 45.5257 36.562 45.7357C37.1597 46.3033 37.7659 46.8801 38.3707 47.4563C38.6211 47.6949 38.9496 47.6658 39.1222 47.6343C39.3245 47.5974 39.5435 47.5139 39.7524 47.4196C40.1694 47.2315 40.6683 46.9431 41.1366 46.6725L41.1531 46.663C41.6032 46.4029 41.9045 46.3027 42.0914 46.2785C42.1812 46.2669 42.2319 46.2745 42.2554 46.2808C42.269 46.2844 42.2757 46.2881 42.2791 46.2904C42.2861 46.3084 42.2972 46.3591 42.2849 46.4731C42.2621 46.684 42.1665 47.0161 41.9451 47.5269C41.843 47.7625 41.7287 47.9787 41.6141 48.191C41.6024 48.2127 41.5905 48.2345 41.5786 48.2565C41.4785 48.4414 41.3741 48.6342 41.2934 48.8175C41.2027 49.0236 41.1218 49.2605 41.1133 49.5147C41.1043 49.785 41.178 50.0471 41.3506 50.2898C41.485 50.4787 41.9311 50.9629 42.4752 51.5387C43.0362 52.1323 43.7421 52.865 44.4332 53.5773C45.1245 54.2899 45.8021 54.9832 46.3068 55.4984C46.5592 55.7559 46.7684 55.969 46.9145 56.1177L47.0839 56.29L47.1284 56.3353L47.1399 56.3469L47.1428 56.3498L47.1435 56.3506L47.1437 56.3508L47.5 56M47.5 56V56.5C47.3661 56.5 47.2377 56.4463 47.1438 56.3508L47.5 56ZM42.2743 46.2823C42.2747 46.282 42.2764 46.284 42.2787 46.2894C42.2751 46.2854 42.274 46.2827 42.2743 46.2823ZM37.2118 41.9714C37.2117 41.9714 37.2109 41.9712 37.2094 41.9708L37.2118 41.9714ZM37.1531 41.9333C37.1518 41.9319 37.1513 41.9311 37.1513 41.9309C37.1513 41.9308 37.152 41.9315 37.1531 41.9333ZM19.9812 15C19.9812 17.1082 18.2618 18.822 16.1348 18.822C14.0079 18.822 12.2885 17.1082 12.2885 15C12.2885 12.8918 14.0079 11.178 16.1348 11.178C18.2618 11.178 19.9812 12.8918 19.9812 15Z" stroke="currentColor" stroke-linecap="round" stroke-linejoin="round"/></svg>

<svg xmlns="http://www.w3.org/2000/svg" fill="none" viewBox="0 0 64 64" width="1em" height="1em"><path stroke="currentColor" stroke-linecap="round" stroke-linejoin="round" d="M57 46.5h.5a.5.5 0 0 0-.154-.361L57 46.5Zm0 0h.5V54c0 .663-.326 1.283-.771 1.729-.446.445-1.066.771-1.729.771h-7.494 0-.004 0-.001 0L47.5 56m9.5-9.5c.346-.361.345-.361.345-.362h0l-.002-.002-.007-.007-.029-.027-.111-.106-.43-.412a2553.536 2553.536 0 0 1-6.819-6.547c-4.101-3.951-9.004-8.699-12.215-11.892-1.3-1.292-1.24-2.893-1.178-4.179.005-.107.007-.21.009-.302v-.042c.003-.105.005-.192.011-.268.424-5.263-.92-9.977-3.728-13.383C30.032 5.558 25.78 3.5 20.481 3.5 10.57 3.5 4.5 11.734 4.5 19.012c0 3.575.76 8.07 3.429 11.629 2.69 3.586 7.263 6.143 14.71 5.923.348 0 .709-.017 1.066-.033h.006c.337-.016.687-.053 1.026-.088l.175-.018c.4-.04.788-.075 1.166-.077.754-.005 1.424.121 2.003.553l.005.004.013.011.01.01a4.185 4.185 0 0 1 .174.178c.112.12.252.28.418.472.183.213.39.458.618.729.188.223.391.463.608.717.948 1.114 2.122 2.456 3.23 3.497.272.255.633.33.998.31.362-.02.785-.132 1.267-.322.49-.193.946-.372 1.317-.47a1.752 1.752 0 0 1 .427-.07.574.574 0 0 1 .01.177c-.011.2-.085.503-.259.929l-.008.019c-.182.444-.38.927-.493 1.334a2.516 2.516 0 0 0-.107.627c-.003.19.032.473.253.683.598.567 1.204 1.144 1.809 1.72.25.239.579.21.751.178.203-.037.422-.12.63-.214.417-.189.916-.477 1.385-.748l.016-.009c.45-.26.752-.36.938-.384a.437.437 0 0 1 .164.002c.014.003.02.007.024.01a.428.428 0 0 1 .006.182c-.023.211-.118.543-.34 1.054a8.506 8.506 0 0 1-.33.664.844.844 0 0 0-.036.066c-.1.184-.205.377-.286.56-.09.207-.171.444-.18.698-.009.27.065.532.238.775.134.189.58.673 1.124 1.249a228.96 228.96 0 0 0 1.958 2.038 563.178 563.178 0 0 0 2.481 2.54l.17.173.044.045.012.012.003.003h0L47.5 56m0 0v.5a.5.5 0 0 1-.356-.15L47.5 56Zm-5.226-9.718.005.007-.005-.007Zm-5.062-4.31-.003-.001h.003Zm-.059-.039-.002-.002.002.002ZM19.981 15c0 2.108-1.72 3.822-3.846 3.822-2.127 0-3.847-1.714-3.847-3.822s1.72-3.822 3.847-3.822S19.98 12.892 19.98 15Z"/></svg>
